icons/file/icon_account-main_m_white.svg

<svg width="24" height="24" viewBox="0 0 24 24" xmlns="http://www.w3.org/2000/svg"><g fill="none" fill-rule="evenodd"><path d="M0 0h24v24H0z"/><path fill="#FFF" opacity=".35" d="M7 11h10v2H7zm0-4h6v2H7z"/><path d="M19 23H5c-1.1 0-2-.9-2-2V3c0-1.1.9-2 2-2h10.7L21 6.3V21c0 1.1-.9 2-2 2zM5 2c-.6 0-1 .4-1 1v18c0 .6.4 1 1 1h14c.6 0 1-.4 1-1V6.7L15.3 2H5z" fill="#FFF"/><circle fill="#FFF" opacity=".3" cx="9" cy="17" r="2"/></g></svg>

<?xml version="1.0" encoding="UTF-8"?>
<svg width="24px" height="24px" viewBox="0 0 24 24" version="1.1" xmlns="http://www.w3.org/2000/svg" xmlns:xlink="http://www.w3.org/1999/xlink">
    <!-- Generator: Sketch 48.2 (47327) - http://www.bohemiancoding.com/sketch -->
    <title>icon_account-main_m_white</title>
    <desc>Created with Sketch.</desc>
    <defs></defs>
    <g id="mobile" stroke="none" stroke-width="1" fill="none" fill-rule="evenodd" transform="translate(-64.000000, -153.000000)">
        <g id="Headings" transform="translate(64.000000, 77.000000)"></g>
        <g id="icon_tool_account__m__white" transform="translate(64.000000, 153.000000)">
            <g id="ungroup">
                <rect id="Rectangle-path" x="0" y="0" width="24" height="24"></rect>
                <rect id="Rectangle-path" fill="#FFFFFF" opacity="0.35" x="7" y="11" width="10" height="2"></rect>
                <rect id="Rectangle-path" fill="#FFFFFF" opacity="0.35" x="7" y="7" width="6" height="2"></rect>
                <path d="M19,23 L5,23 C3.9,23 3,22.1 3,21 L3,3 C3,1.9 3.9,1 5,1 L15.7,1 L21,6.3 L21,21 C21,22.1 20.1,23 19,23 L19,23 Z M5,2 C4.4,2 4,2.4 4,3 L4,21 C4,21.6 4.4,22 5,22 L19,22 C19.6,22 20,21.6 20,21 L20,6.7 L15.3,2 L5,2 L5,2 Z" id="Shape" fill="#FFFFFF"></path>
                <circle id="Oval" fill="#FFFFFF" opacity="0.3" cx="9" cy="17" r="2"></circle>
                <g id="Group" opacity="0.3"></g>
            </g>
        </g>
    </g>
</svg>
